collections/remixicon/finance/exchange-cny-fill.svg

<svg viewBox="0 0 24 24" xmlns="http://www.w3.org/2000/svg" width="20" height="20"><path d="M5.378 4.514a9.962 9.962 0 016.627-2.511c5.523 0 10 4.477 10 10a9.954 9.954 0 01-1.793 5.715l-2.707-5.715h2.5A8 8 0 006.279 6.416l-.9-1.902zm13.253 14.978a9.962 9.962 0 01-6.626 2.51c-5.523 0-10-4.476-10-10 0-2.124.663-4.094 1.793-5.714l2.707 5.715h-2.5A8 8 0 0017.73 17.59l.901 1.902zm-5.626-5.954h3v2h-3v2h-2v-2h-3v-2h3v-1h-3v-2h2.586l-2.122-2.12 1.415-1.415 2.12 2.121 2.122-2.121 1.414 1.414-2.12 2.122h2.585v2h-3v1z"/></svg>

<svg xmlns="http://www.w3.org/2000/svg" viewBox="0 0 24 24" width="20" height="20"><path fill="none" d="M0 0h24v24H0z"/><path d="M5.373 4.51A9.962 9.962 0 0112 2c5.523 0 10 4.477 10 10a9.954 9.954 0 01-1.793 5.715L17.5 12H20A8 8 0 006.274 6.413l-.9-1.902zm13.254 14.98A9.962 9.962 0 0112 22C6.477 22 2 17.523 2 12c0-2.125.663-4.095 1.793-5.715L6.5 12H4a8 8 0 0013.726 5.587l.9 1.902zM13 13.535h3v2h-3v2h-2v-2H8v-2h3v-1H8v-2h2.586L8.464 8.414 9.88 7 12 9.121 14.121 7l1.415 1.414-2.122 2.122H16v2h-3v1z"/></svg>
